public/location.svg

<svg width="70" height="97" viewBox="0 0 70 97" fill="none" xmlns="http://www.w3.org/2000/svg">
<g clip-path="url(#clip0_698_6583)">
<path d="M37.2203 96.964C36.4815 96.9638 35.7619 96.7289 35.1653 96.2931C33.3933 94.9991 31.5373 93.6991 29.5733 92.3221C23.4143 88.0061 17.0463 83.5429 12.6093 78.8299C8.76631 74.6839 6.82031 68.7611 6.82031 61.2201C6.82031 41.5301 20.7023 17.4971 37.7673 7.64708C46.1673 2.79708 54.1063 2.03814 60.1183 5.50914C66.1303 8.98014 69.4434 16.238 69.4434 25.943C69.2521 34.1913 67.3366 42.3084 63.8203 49.7721C59.4433 59.4531 53.1593 71.1209 47.0813 82.4039C44.6743 86.8719 42.4004 91.0939 40.2874 95.1129C39.9935 95.6718 39.5524 96.1397 39.0118 96.4659C38.4713 96.7922 37.8517 96.9645 37.2203 96.964ZM51.7793 4.87999C47.7303 4.87999 43.2183 6.24909 38.5243 8.9591C21.8783 18.5691 8.33533 42.0131 8.33533 61.2201C8.33533 68.3661 10.1453 73.943 13.7163 77.795C18.0423 82.395 24.3453 86.8091 30.4413 91.0821C32.4123 92.4631 34.2733 93.767 36.0573 95.069C36.2856 95.2361 36.5472 95.352 36.8244 95.4088C37.1016 95.4656 37.3877 95.4619 37.6633 95.3981C37.9356 95.3349 38.191 95.2137 38.4122 95.0428C38.6335 94.872 38.8153 94.6555 38.9453 94.4081C41.0613 90.3821 43.3374 86.1579 45.7454 81.6849C51.8104 70.4249 58.0814 58.7851 62.4374 49.1481C65.8655 41.8802 67.7352 33.9755 67.9264 25.942C67.9264 16.801 64.8833 10.0099 59.3583 6.82091C57.0489 5.51303 54.4331 4.8432 51.7793 4.87999Z" fill="#23356B"/>
<path d="M28.0853 73.4144C25.898 73.4417 23.7429 72.8865 21.8412 71.8056C17.3412 69.2056 14.8672 63.7984 14.8672 56.5714C14.8672 41.9964 25.1412 24.2165 37.7672 16.9345C44.0132 13.3205 49.9292 12.7584 54.4262 15.3524C58.9232 17.9464 61.4052 23.3524 61.4052 30.5814C61.4052 45.1534 51.1412 62.9374 38.5252 70.2284C35.3825 72.1825 31.7835 73.2808 28.0853 73.4144ZM48.1852 15.2626C44.7596 15.3975 41.4287 16.4257 38.5233 18.2455C26.3143 25.2845 16.3812 42.4765 16.3812 56.5695C16.3812 63.2325 18.5892 68.1764 22.5972 70.4904C26.6052 72.8044 31.9972 72.2455 37.7662 68.9135C49.9662 61.8645 59.8882 44.6675 59.8882 30.5785C59.8882 23.9185 57.6792 18.9785 53.6672 16.6625C51.9971 15.7187 50.1063 15.2357 48.1882 15.2626H48.1852Z" fill="#23356B"/>
<path fill-rule="evenodd" clip-rule="evenodd" d="M44.579 30.7976C39.85 28.0596 36.601 25.0626 30.011 31.2256C24.079 36.7626 19.622 49.1097 25.86 53.0567" fill="#23356B"/>
<path d="M7.33067 75.7073C7.22219 75.7073 7.11496 75.684 7.01628 75.6389C6.91759 75.5939 6.82978 75.5283 6.75871 75.4463C-0.798293 66.7533 0.332673 54.4703 2.61167 45.6983C5.44992 35.2736 10.4083 25.5465 17.1767 17.1253C19.4337 14.4083 25.5527 7.63225 33.6007 3.38625C41.2637 -0.656749 48.4156 -1.0878 54.2826 2.1382C54.4529 2.23806 54.5776 2.40055 54.63 2.59084C54.6825 2.78114 54.6586 2.98427 54.5635 3.15725C54.4684 3.33023 54.3095 3.45941 54.1208 3.51711C53.932 3.57482 53.7282 3.55658 53.5527 3.46633C48.0756 0.45533 41.6007 0.87834 34.3077 4.72634C26.4997 8.84534 20.5407 15.4463 18.3417 18.0933C11.713 26.3414 6.85712 35.8683 4.07768 46.0784C1.88968 54.4984 0.777651 66.2562 7.90165 74.4512C7.9969 74.5609 8.05866 74.6956 8.07951 74.8394C8.10036 74.9831 8.07949 75.13 8.01933 75.2622C7.95917 75.3945 7.86224 75.5065 7.74015 75.5852C7.61807 75.664 7.47594 75.707 7.33067 75.7073Z" fill="#23356B"/>
<path d="M36.0543 96.7833C35.9217 96.7835 35.7914 96.7492 35.6763 96.6835C32.783 95.1512 29.9984 93.4217 27.3423 91.5075C26.5593 90.9465 25.5423 90.2155 24.0373 89.1635L22.9553 88.4064C17.2553 84.4154 11.8653 80.6453 6.7873 75.4813C6.71425 75.4111 6.65598 75.3269 6.61604 75.2338C6.57609 75.1406 6.55524 75.0404 6.5547 74.9391C6.55416 74.8377 6.57397 74.7373 6.61293 74.6437C6.65188 74.5501 6.70921 74.4654 6.7815 74.3944C6.8538 74.3234 6.93958 74.2674 7.03382 74.2301C7.12807 74.1928 7.22889 74.1748 7.33021 74.1771C7.43154 74.1795 7.53136 74.2022 7.62379 74.2438C7.71622 74.2854 7.79935 74.345 7.8683 74.4193C9.4613 76.0383 11.0683 77.5034 12.7023 78.8834C1.01228 65.5604 9.06125 42.5473 15.8883 30.7343C24.1803 16.3753 43.5113 -3.17473 60.0883 5.49427C60.1811 5.53749 60.2643 5.5992 60.3327 5.67542C60.401 5.75164 60.4532 5.84091 60.4861 5.93787C60.519 6.03484 60.532 6.13753 60.5242 6.23963C60.5163 6.34173 60.4879 6.44106 60.4406 6.53187C60.3932 6.62267 60.328 6.70305 60.2488 6.76795C60.1696 6.83285 60.0781 6.88101 59.9797 6.90955C59.8814 6.9381 59.7783 6.94636 59.6766 6.93397C59.575 6.92157 59.4769 6.88863 59.3883 6.83729C50.6463 2.26429 41.5083 6.57835 35.3823 11.0013C27.3603 16.7943 20.7333 25.3843 17.2063 31.4923C10.3783 43.3063 2.22129 66.6193 14.9573 79.0553C19.0803 83.0833 24.1743 86.6474 29.1013 90.0944C31.5593 91.8134 34.1013 93.5945 36.5193 95.4235C36.6458 95.5194 36.739 95.6526 36.7857 95.8043C36.8325 95.956 36.8303 96.1185 36.7797 96.2689C36.7291 96.4194 36.6326 96.5503 36.5037 96.643C36.3748 96.7356 36.22 96.7853 36.0613 96.7853L36.0543 96.7833Z" fill="#23356B"/>
<path d="M22.4945 70.0739C21.5133 70.075 20.5344 69.9778 19.5725 69.7839C19.472 69.7673 19.3758 69.7307 19.2898 69.6762C19.2037 69.6217 19.1296 69.5506 19.0718 69.4667C19.0139 69.3829 18.9735 69.2882 18.953 69.1884C18.9325 69.0886 18.9323 68.9858 18.9525 68.8859C18.9727 68.7861 19.0128 68.6914 19.0704 68.6074C19.128 68.5234 19.202 68.4517 19.2878 68.3969C19.3737 68.3421 19.4697 68.3054 19.5702 68.2885C19.6706 68.2717 19.7735 68.2752 19.8725 68.299C31.2135 70.593 43.3345 56.893 48.3105 47.715C53.3715 38.361 57.3436 22.131 50.3296 15.339C50.2119 15.2247 50.1344 15.0751 50.1089 14.913C50.0833 14.7509 50.1111 14.5851 50.188 14.4401C50.2649 14.2951 50.3866 14.1789 50.5351 14.1091C50.6837 14.0393 50.8509 14.0196 51.0116 14.0529C52.2144 14.2974 53.3692 14.7365 54.4305 15.353C59.7935 18.748 62.1535 24.9801 61.2785 33.3901C60.3817 40.3315 58.1572 47.0353 54.7265 53.1359C54.6255 53.3055 54.4623 53.429 54.2717 53.4802C54.0811 53.5313 53.8781 53.5058 53.7058 53.4096C53.5335 53.3134 53.4055 53.1539 53.3491 52.9648C53.2927 52.7757 53.3122 52.5718 53.4035 52.3969C59.3596 41.7359 64.3375 23.417 53.6405 16.645C53.4705 16.545 53.2956 16.45 53.1156 16.36C58.5936 24.816 54.1586 40.085 49.6426 48.433C44.6846 57.584 33.7395 70.0739 22.4945 70.0739Z" fill="#23356B"/>
<path d="M59.7288 6.91949C59.5962 6.92007 59.4657 6.88547 59.3507 6.81939L53.5327 3.45733C53.4432 3.40935 53.3643 3.34381 53.3006 3.26471C53.2368 3.1856 53.1896 3.09458 53.1618 2.99688C53.1339 2.89919 53.1261 2.79691 53.1386 2.6961C53.1511 2.59529 53.1836 2.49793 53.2344 2.40997C53.2852 2.32201 53.3532 2.24531 53.4343 2.18414C53.5154 2.12297 53.608 2.0787 53.7066 2.05401C53.8051 2.02932 53.9076 2.02464 54.008 2.04034C54.1083 2.05604 54.2045 2.09172 54.2908 2.14532L60.1088 5.50641C60.2531 5.58998 60.3659 5.71869 60.4296 5.87286C60.4933 6.02703 60.5042 6.1981 60.461 6.35919C60.4177 6.52028 60.3225 6.6625 60.1901 6.76397C60.0577 6.86545 59.8956 6.91954 59.7288 6.91949Z" fill="#23356B"/>
<path fill-rule="evenodd" clip-rule="evenodd" d="M44.79 30.9207L39.79 29.6445L35.8191 30.1196L28.89 38.4326L25.9531 53.1096L29.5941 55.2097" fill="#23356B"/>
<path fill-rule="evenodd" clip-rule="evenodd" d="M32.8839 55.3928C31.5405 55.3928 30.4109 54.8669 29.6174 53.8721C28.7433 52.7759 28.2812 51.1467 28.2812 49.1604C28.2812 46.2085 29.2861 42.842 31.1108 39.6807C32.9374 36.5164 35.3527 33.9624 37.912 32.489C39.3278 31.6719 40.7188 31.2402 41.9353 31.2402C43.2792 31.2402 44.4098 31.7664 45.2048 32.7617C46.0809 33.8586 46.5439 35.4878 46.5439 37.4734C46.5439 40.4219 45.5374 43.7878 43.7095 46.9517C41.8818 50.115 39.4681 52.6694 36.9131 54.1445C35.4949 54.9609 34.1012 55.3928 32.8839 55.3928Z" fill="white"/>
<path fill-rule="evenodd" clip-rule="evenodd" d="M41.9352 32.2402C40.8938 32.2402 39.6759 32.6257 38.4109 33.3557C36.0018 34.7424 33.7168 37.1663 31.9769 40.1807C30.2638 43.1487 29.2812 46.4216 29.2812 49.1604C29.2812 50.9177 29.6678 52.3313 30.3993 53.2485C31.0049 54.0078 31.8408 54.3928 32.8839 54.3928C33.9264 54.3928 35.1475 54.0071 36.4132 53.2783C38.7838 51.9099 41.1276 49.4214 42.8436 46.4514C44.5597 43.481 45.5439 40.2087 45.5439 37.4734C45.5439 35.717 45.1565 34.3037 44.4235 33.386C43.8163 32.6257 42.9791 32.2402 41.9352 32.2402ZM41.9353 30.2402C45.2593 30.2405 47.5439 32.8889 47.5439 37.4734C47.5439 43.9277 43.0046 51.7825 37.4131 55.0105C31.8071 58.2383 27.2812 55.6221 27.2812 49.1604C27.2812 42.7048 31.8066 34.8499 37.4131 31.6223C39.038 30.6846 40.5737 30.2402 41.9353 30.2402Z" fill="#23356B"/>
</g>
<defs>
<clipPath id="clip0_698_6583">
<rect width="68.542" height="96.965" fill="white" transform="translate(0.898438)"/>
</clipPath>
</defs>
</svg>

<svg xmlns="http://www.w3.org/2000/svg" width="70" height="97" fill="none" viewBox="0 0 70 97"><g clip-path="url(#a)"><path fill="#23356b" d="M37.22 96.964a3.5 3.5 0 0 1-2.055-.67c-1.772-1.295-3.628-2.595-5.592-3.972-6.159-4.316-12.527-8.78-16.964-13.492C8.766 74.684 6.82 68.76 6.82 61.22c0-19.69 13.882-43.723 30.947-53.573 8.4-4.85 16.34-5.609 22.351-2.138 6.012 3.471 9.325 10.729 9.325 20.434a59.1 59.1 0 0 1-5.623 23.83c-4.377 9.68-10.66 21.348-16.739 32.63-2.407 4.469-4.68 8.69-6.794 12.71a3.46 3.46 0 0 1-3.067 1.851M51.78 4.88c-4.05 0-8.562 1.37-13.256 4.08C21.878 18.57 8.335 42.012 8.335 61.22c0 7.146 1.81 12.723 5.381 16.575 4.326 4.6 10.63 9.014 16.725 13.287 1.971 1.381 3.832 2.685 5.616 3.987a1.97 1.97 0 0 0 2.355-.026c.221-.171.403-.388.533-.635 2.116-4.026 4.392-8.25 6.8-12.723 6.065-11.26 12.336-22.9 16.692-32.537a57.6 57.6 0 0 0 5.49-23.206c0-9.141-3.044-15.932-8.569-19.121A14.96 14.96 0 0 0 51.78 4.88"/><path fill="#23356b" d="M28.085 73.414a12.3 12.3 0 0 1-6.244-1.608c-4.5-2.6-6.974-8.008-6.974-15.235 0-14.575 10.274-32.354 22.9-39.636 6.246-3.614 12.162-4.177 16.66-1.583 4.496 2.594 6.978 8 6.978 15.23 0 14.571-10.264 32.355-22.88 39.646a21.2 21.2 0 0 1-10.44 3.186m20.1-58.151a19.66 19.66 0 0 0-9.662 2.983c-12.209 7.039-22.142 24.23-22.142 38.323 0 6.663 2.208 11.607 6.216 13.921s9.4 1.756 15.17-1.576c12.2-7.05 22.121-24.247 22.121-38.335 0-6.66-2.209-11.6-6.22-13.916a10.83 10.83 0 0 0-5.48-1.4z"/><path fill="#23356b" fill-rule="evenodd" d="M44.579 30.798c-4.729-2.738-7.978-5.735-14.568.428-5.932 5.537-10.389 17.884-4.151 21.83" clip-rule="evenodd"/><path fill="#23356b" d="M7.33 75.707a.76.76 0 0 1-.571-.26C-.798 66.752.333 54.47 2.612 45.697a78.55 78.55 0 0 1 14.565-28.573c2.257-2.717 8.376-9.493 16.424-13.739 7.663-4.043 14.815-4.474 20.682-1.248a.758.758 0 0 1-.73 1.328C48.076.456 41.6.878 34.308 4.726 26.5 8.846 20.54 15.446 18.342 18.093A76.9 76.9 0 0 0 4.078 46.078c-2.188 8.42-3.3 20.178 3.824 28.373a.758.758 0 0 1-.571 1.256"/><path fill="#23356b" d="M36.054 96.783a.76.76 0 0 1-.378-.1 71.5 71.5 0 0 1-8.334-5.176c-.783-.56-1.8-1.291-3.305-2.344l-1.082-.757c-5.7-3.99-11.09-7.76-16.168-12.925a.758.758 0 1 1 1.081-1.062 71 71 0 0 0 4.834 4.464c-11.69-13.323-3.64-36.336 3.186-48.149 8.292-14.359 27.623-33.909 44.2-25.24a.76.76 0 0 1-.411 1.44.8.8 0 0 1-.289-.097c-8.742-4.573-17.88-.259-24.006 4.164-8.022 5.793-14.649 14.383-18.176 20.491-6.828 11.814-14.985 35.127-2.249 47.563 4.123 4.028 9.217 7.592 14.144 11.04 2.458 1.718 5 3.5 7.418 5.329a.758.758 0 0 1-.458 1.361z"/><path fill="#23356b" d="M22.495 70.074c-.982.001-1.96-.096-2.922-.29a.76.76 0 0 1-.285-1.387.76.76 0 0 1 .584-.098c11.342 2.294 23.463-11.406 28.438-20.584 5.061-9.354 9.034-25.584 2.02-32.376a.758.758 0 0 1 .682-1.286 11.3 11.3 0 0 1 3.419 1.3c5.363 3.395 7.723 9.627 6.848 18.037a54.5 54.5 0 0 1-6.553 19.746.758.758 0 0 1-1.322-.74c5.956-10.66 10.934-28.979.236-35.751q-.255-.15-.524-.285c5.478 8.456 1.043 23.725-3.473 32.073-4.958 9.151-15.904 21.64-27.149 21.64M59.729 6.92a.75.75 0 0 1-.378-.1l-5.818-3.363a.758.758 0 1 1 .758-1.312l5.818 3.361a.758.758 0 0 1-.38 1.413"/><path fill="#23356b" fill-rule="evenodd" d="m44.79 30.92-5-1.276-3.97.476-6.93 8.313-2.937 14.677 3.641 2.1" clip-rule="evenodd"/><path fill="#fff" fill-rule="evenodd" d="M32.884 55.393c-1.343 0-2.473-.526-3.267-1.52-.874-1.097-1.336-2.726-1.336-4.713 0-2.951 1.005-6.318 2.83-9.48 1.826-3.164 4.242-5.718 6.801-7.191 1.416-.817 2.807-1.249 4.023-1.249 1.344 0 2.475.526 3.27 1.522.876 1.097 1.339 2.726 1.339 4.711 0 2.949-1.007 6.315-2.834 9.479s-4.242 5.717-6.797 7.193c-1.418.816-2.812 1.248-4.03 1.248" clip-rule="evenodd"/><path fill="#23356b" fill-rule="evenodd" d="M41.935 32.24c-1.041 0-2.26.386-3.524 1.116-2.41 1.386-4.694 3.81-6.434 6.825-1.713 2.968-2.696 6.24-2.696 8.98 0 1.757.387 3.17 1.118 4.087.606.76 1.442 1.145 2.485 1.145s2.264-.386 3.53-1.115c2.37-1.368 4.714-3.857 6.43-6.827s2.7-6.242 2.7-8.978c0-1.756-.387-3.17-1.12-4.087-.608-.76-1.445-1.146-2.489-1.146m0-2c3.324 0 5.609 2.649 5.609 7.233 0 6.455-4.54 14.31-10.13 17.538-5.607 3.227-10.133.611-10.133-5.85 0-6.456 4.526-14.311 10.132-17.539 1.625-.937 3.16-1.382 4.522-1.382" clip-rule="evenodd"/></g><defs><clipPath id="a"><path fill="#fff" d="M.898 0H69.44v96.965H.898z"/></clipPath></defs></svg>
